app/component-library/components/Icons/Icon/assets/question.svg

<svg width="24" height="24" viewBox="0 0 24 24" fill="none" xmlns="http://www.w3.org/2000/svg">
<path fill-rule="evenodd" clip-rule="evenodd" d="M22.2808 12C22.2808 17.5228 17.8036 22 12.2808 22C6.75791 22 2.28076 17.5228 2.28076 12C2.28076 6.47715 6.75791 2 12.2808 2C17.8036 2 22.2808 6.47715 22.2808 12ZM12.2808 6.72222C10.675 6.72222 9.22521 7.90381 9.22521 9.55225C9.22521 10.0125 9.5983 10.3856 10.0585 10.3856C10.5188 10.3856 10.8919 10.0125 10.8919 9.55225C10.8919 8.98754 11.4233 8.38889 12.2808 8.38889C13.1382 8.38889 13.6697 8.98754 13.6697 9.55225C13.6697 9.86568 13.4961 10.0825 12.9695 10.4056L12.966 10.4078C12.3905 10.7648 11.4474 11.4146 11.4474 12.7156V12.9682C11.4474 13.4284 11.8205 13.8015 12.2808 13.8015C12.741 13.8015 13.1141 13.4284 13.1141 12.9682V12.7156C13.1141 12.3812 13.2953 12.165 13.843 11.825C14.4143 11.4743 15.3363 10.8251 15.3363 9.55225C15.3363 7.90381 13.8865 6.72222 12.2808 6.72222ZM12.2746 15.0097C11.8144 15.0097 11.4413 15.3828 11.4413 15.843C11.4413 16.3033 11.8144 16.6764 12.2746 16.6764H12.2867C12.7469 16.6764 13.12 16.3033 13.12 15.843C13.12 15.3828 12.7469 15.0097 12.2867 15.0097H12.2746Z" fill="currentColor"/>
</svg>

<svg xmlns="http://www.w3.org/2000/svg" width="24" height="24" viewBox="0 0 24 24" fill="none"><path fill-rule="evenodd" clip-rule="evenodd" d="M22.28 12c0 5.523-4.476 10-10 10-5.522 0-10-4.477-10-10s4.478-10 10-10c5.524 0 10 4.477 10 10zm-10-5.278c-1.605 0-3.055 1.182-3.055 2.83a.833.833 0 1 0 1.667 0c0-.564.531-1.163 1.389-1.163.857 0 1.389.599 1.389 1.163 0 .314-.174.53-.7.854l-.004.002c-.575.357-1.519 1.007-1.519 2.308v.252a.833.833 0 0 0 1.667 0v-.252c0-.335.181-.551.729-.891.571-.35 1.493-1 1.493-2.273 0-1.648-1.45-2.83-3.055-2.83zm-.005 8.288a.833.833 0 0 0 0 1.666h.012a.833.833 0 0 0 0-1.666h-.012z" fill="currentColor"/></svg>
